X:7
T:Blue Bonnets
F:http://www.vwml.org/record/FK/8/7
Z:transcribed by Alice Baillie
M:6/8
L:1/8
K:G
G2 z G2 z | GBA GED | G>EE EED | edc BAG | G2 z G2 z | 
GBA GED | cde dBG | GAB {B}A2 G :: GBd dBG | edB BAG | 
GBd e>fg | G>AG/A/ GED | GBd dBG | edB A>GA | 
c>de d<gG | GAB A2 G :||

